(Generated by PartKam Version 0.05)

G21 G90 G40

(drill counterbores)
G0 Z5
T0 M6
G17
M3
G0 X91.63451776649747 Y86.19390862944162
G1 Z-1.5 F800
G1 X91.63451776649745 Y51.368020304568525 F1500
G1 X96.45939086294416 Y51.368020304568525
G1 X96.45939086294416 Y86.19289340101523
G1 X91.63451776649745 Y86.19289340101523
G0 Z5
G0 X79.23451776649746 Y86.19390862944162
G1 Z-1.5 F800
G1 X79.23350253807106 Y51.368020304568525 F1500
G1 X84.05837563451776 Y51.368020304568525
G1 X84.05837563451776 Y86.19289340101523
G1 X79.23350253807106 Y86.19289340101523
G0 Z5
G0 X110.43451776649746 Y51.19390862944162
G1 Z-1.5 F800
G1 X110.43401015228426 Y26.368020304568528 F1500
G1 X115.25888324873095 Y26.368020304568528
G1 X115.25888324873095 Y51.19289340101523
G1 X110.43401015228426 Y51.19289340101523
G0 Z5
G0 X60.618781725888326 Y51.19390862944162
G1 Z-1.5 F800
G1 X60.61928934010152 Y26.368020304568528 F1500
G1 X65.44416243654823 Y26.368020304568528
G1 X65.44416243654823 Y51.19289340101523
G1 X60.61928934010152 Y51.19289340101523
G0 Z5
G0 X63.29010152284264 Y129.9997461928934
G1 Z-1.5 F800
G3 X63.59644670050762 Y129.39593908629442 I2.0558375634517767 J0.6675126903553299 F1500
G3 X64.0761421319797 Y128.91878172588832 I1.748730964467005 J1.2715736040609138
G3 X64.67766497461929 Y128.61167512690355 I1.2715736040609138 J1.748730964467005
G3 X65.34771573604061 Y128.50507614213197 I0.6675126903553299 J2.0558375634517767
G3 X66.01522842639594 Y128.61167512690355 I0 J2.1624365482233503
G3 X66.61928934010152 Y128.91878172588832 I-0.6675126903553299 J2.0558375634517767
G3 X67.09644670050761 Y129.39593908629442 I-1.2715736040609138 J1.748730964467005
G3 X67.40355329949239 Y130 I-1.748730964467005 J1.2715736040609138
G3 X67.51015228426395 Y130.66751269035532 I-2.0558375634517767 J0.6675126903553299
G1 X67.51015228426395 Y130.66751269035532
G1 X67.51015228426395 Y130.67005076142132
G3 X67.40355329949239 Y131.33756345177665 I-2.1624365482233503 J0
G3 X67.09644670050761 Y131.94162436548223 I-2.0558375634517767 J-0.6675126903553299
G3 X66.61928934010152 Y132.41878172588832 I-1.748730964467005 J-1.2715736040609138
G3 X66.01522842639594 Y132.7258883248731 I-1.2715736040609138 J-1.748730964467005
G3 X65.34771573604061 Y132.83248730964465 I-0.6675126903553299 J-2.0558375634517767
G3 X64.67766497461929 Y132.7258883248731 I0 J-2.1624365482233503
G3 X64.0761421319797 Y132.41878172588832 I0.6675126903553299 J-2.0558375634517767
G3 X63.59644670050762 Y131.94162436548223 I1.2715736040609138 J-1.748730964467005
G3 X63.289340101522846 Y131.33756345177665 I1.748730964467005 J-1.2715736040609138
G3 X63.18527918781726 Y130.67005076142132 I2.0558375634517767 J-0.6675126903553299
G1 X63.18527918781726 Y130.66751269035532
G1 X63.18527918781726 Y130.66751269035532
G3 X63.289340101522846 Y130 I2.1624365482233503 J0
G0 Z5
G0 X63.29010152284264 Y114.9997461928934
G1 Z-1.5 F800
G3 X63.59644670050762 Y114.39593908629442 I2.0558375634517767 J0.6675126903553299 F1500
G3 X64.0761421319797 Y113.91878172588832 I1.748730964467005 J1.2715736040609138
G3 X64.67766497461929 Y113.61167512690356 I1.2715736040609138 J1.748730964467005
G3 X65.34771573604061 Y113.50507614213198 I0.6675126903553299 J2.0558375634517767
G3 X66.01522842639594 Y113.61167512690356 I0 J2.1624365482233503
G3 X66.61928934010152 Y113.91878172588832 I-0.6675126903553299 J2.0558375634517767
G3 X67.09644670050761 Y114.39593908629442 I-1.2715736040609138 J1.748730964467005
G3 X67.40355329949239 Y115 I-1.748730964467005 J1.2715736040609138
G3 X67.51015228426395 Y115.66751269035534 I-2.0558375634517767 J0.6675126903553299
G1 X67.51015228426395 Y115.66751269035534
G1 X67.51015228426395 Y115.67005076142132
G3 X67.40355329949239 Y116.33756345177665 I-2.1624365482233503 J0
G3 X67.09644670050761 Y116.94162436548224 I-2.0558375634517767 J-0.6675126903553299
G3 X66.61928934010152 Y117.41878172588832 I-1.748730964467005 J-1.2715736040609138
G3 X66.01522842639594 Y117.7258883248731 I-1.2715736040609138 J-1.748730964467005
G3 X65.34771573604061 Y117.83248730964466 I-0.6675126903553299 J-2.0558375634517767
G3 X64.67766497461929 Y117.7258883248731 I0 J-2.1624365482233503
G3 X64.0761421319797 Y117.41878172588832 I0.6675126903553299 J-2.0558375634517767
G3 X63.59644670050762 Y116.94162436548224 I1.2715736040609138 J-1.748730964467005
G3 X63.289340101522846 Y116.33756345177665 I1.748730964467005 J-1.2715736040609138
G3 X63.18527918781726 Y115.67005076142132 I2.0558375634517767 J-0.6675126903553299
G1 X63.18527918781726 Y115.66751269035534
G1 X63.18527918781726 Y115.66751269035534
G3 X63.289340101522846 Y115 I2.1624365482233503 J0
G0 Z5
G0 X112.40380710659899 Y131.33730964467006
G1 Z-1.5 F800
G3 X112.09644670050761 Y131.94162436548223 I-2.0558375634517767 J-0.6675126903553299 F1500
G3 X111.61928934010152 Y132.41878172588832 I-1.748730964467005 J-1.2715736040609138
G3 X111.01522842639595 Y132.7258883248731 I-1.2715736040609138 J-1.748730964467005
G3 X110.34771573604061 Y132.83248730964465 I-0.6675126903553299 J-2.0558375634517767
G3 X109.67766497461929 Y132.7258883248731 I0 J-2.1624365482233503
G3 X109.07614213197971 Y132.41878172588832 I0.6675126903553299 J-2.0558375634517767
G3 X108.59644670050761 Y131.94162436548223 I1.2715736040609138 J-1.748730964467005
G3 X108.28934010152284 Y131.33756345177665 I1.748730964467005 J-1.2715736040609138
G3 X108.18527918781726 Y130.67005076142132 I2.0558375634517767 J-0.6675126903553299
G1 X108.18527918781726 Y130.66751269035532
G1 X108.18527918781726 Y130.66751269035532
G3 X108.28934010152284 Y130 I2.1624365482233503 J0
G3 X108.59644670050761 Y129.39593908629442 I2.0558375634517767 J0.6675126903553299
G3 X109.07614213197971 Y128.91878172588832 I1.748730964467005 J1.2715736040609138
G3 X109.67766497461929 Y128.61167512690355 I1.2715736040609138 J1.748730964467005
G3 X110.34771573604061 Y128.50507614213197 I0.6675126903553299 J2.0558375634517767
G3 X111.01522842639595 Y128.61167512690355 I0 J2.1624365482233503
G3 X111.61928934010152 Y128.91878172588832 I-0.6675126903553299 J2.0558375634517767
G3 X112.09644670050761 Y129.39593908629442 I-1.2715736040609138 J1.748730964467005
G3 X112.40355329949239 Y130 I-1.748730964467005 J1.2715736040609138
G3 X112.51015228426397 Y130.66751269035532 I-2.0558375634517767 J0.6675126903553299
G1 X112.51015228426397 Y130.66751269035532
G1 X112.51015228426397 Y130.67005076142132
G3 X112.40355329949239 Y131.33756345177665 I-2.1624365482233503 J0
G0 Z5
G0 X112.40380710659899 Y116.33730964467006
G1 Z-1.5 F800
G3 X112.09644670050761 Y116.94162436548224 I-2.0558375634517767 J-0.6675126903553299 F1500
G3 X111.61928934010152 Y117.41878172588832 I-1.748730964467005 J-1.2715736040609138
G3 X111.01522842639595 Y117.7258883248731 I-1.2715736040609138 J-1.748730964467005
G3 X110.34771573604061 Y117.83248730964466 I-0.6675126903553299 J-2.0558375634517767
G3 X109.67766497461929 Y117.7258883248731 I0 J-2.1624365482233503
G3 X109.07614213197971 Y117.41878172588832 I0.6675126903553299 J-2.0558375634517767
G3 X108.59644670050761 Y116.94162436548224 I1.2715736040609138 J-1.748730964467005
G3 X108.28934010152284 Y116.33756345177665 I1.748730964467005 J-1.2715736040609138
G3 X108.18527918781726 Y115.67005076142132 I2.0558375634517767 J-0.6675126903553299
G1 X108.18527918781726 Y115.66751269035534
G1 X108.18527918781726 Y115.66751269035534
G3 X108.28934010152284 Y115 I2.1624365482233503 J0
G3 X108.59644670050761 Y114.39593908629442 I2.0558375634517767 J0.6675126903553299
G3 X109.07614213197971 Y113.91878172588832 I1.748730964467005 J1.2715736040609138
G3 X109.67766497461929 Y113.61167512690356 I1.2715736040609138 J1.748730964467005
G3 X110.34771573604061 Y113.50507614213198 I0.6675126903553299 J2.0558375634517767
G3 X111.01522842639595 Y113.61167512690356 I0 J2.1624365482233503
G3 X111.61928934010152 Y113.91878172588832 I-0.6675126903553299 J2.0558375634517767
G3 X112.09644670050761 Y114.39593908629442 I-1.2715736040609138 J1.748730964467005
G3 X112.40355329949239 Y115 I-1.748730964467005 J1.2715736040609138
G3 X112.51015228426397 Y115.66751269035534 I-2.0558375634517767 J0.6675126903553299
G1 X112.51015228426397 Y115.66751269035534
G1 X112.51015228426397 Y115.67005076142132
G3 X112.40355329949239 Y116.33756345177665 I-2.1624365482233503 J0
G0 Z5
G0 X58.90380710659898 Y104.4502538071066
G1 Z-1.5 F800
G3 X58.59644670050762 Y105.05329949238579 I-2.0558375634517767 J-0.6675126903553299 F1500
G3 X58.11928934010152 Y105.53299492385787 I-1.748730964467005 J-1.2715736040609138
G3 X57.51522842639594 Y105.84010152284264 I-1.2715736040609138 J-1.748730964467005
G3 X56.847715736040605 Y105.94416243654821 I-0.6675126903553299 J-2.0558375634517767
G3 X56.17766497461929 Y105.84010152284264 I0 J-2.1624365482233503
G3 X55.576142131979694 Y105.53299492385787 I0.6675126903553299 J-2.0558375634517767
G3 X55.09644670050761 Y105.05329949238579 I1.2715736040609138 J-1.748730964467005
G3 X54.78934010152284 Y104.4492385786802 I1.748730964467005 J-1.2715736040609138
G3 X54.68527918781726 Y103.78172588832487 I2.0558375634517767 J-0.6675126903553299
G1 X54.68527918781726 Y103.78172588832487
G1 X54.68527918781726 Y103.78172588832487
G3 X54.78934010152284 Y103.11167512690355 I2.1624365482233503 J0
G3 X55.09644670050761 Y102.51015228426397 I2.0558375634517767 J0.6675126903553299
G3 X55.576142131979694 Y102.03045685279187 I1.748730964467005 J1.2715736040609138
G3 X56.17766497461929 Y101.72335025380711 I1.2715736040609138 J1.748730964467005
G3 X56.847715736040605 Y101.61675126903553 I0.6675126903553299 J2.0558375634517767
G3 X57.51522842639594 Y101.72335025380711 I0 J2.1624365482233503
G3 X58.11928934010152 Y102.03045685279187 I-0.6675126903553299 J2.0558375634517767
G3 X58.59644670050762 Y102.51015228426397 I-1.2715736040609138 J1.748730964467005
G3 X58.90355329949238 Y103.11167512690355 I-1.748730964467005 J1.2715736040609138
G3 X59.01015228426396 Y103.78172588832487 I-2.0558375634517767 J0.6675126903553299
G1 X59.01015228426396 Y103.78172588832487
G1 X59.01015228426396 Y103.78172588832487
G3 X58.90355329949238 Y104.4492385786802 I-2.1624365482233503 J0
G0 Z5
G0 X55.097208121827414 Y72.50964467005076
G1 Z-1.5 F800
G3 X55.576142131979694 Y72.03045685279187 I1.748730964467005 J1.2715736040609138 F1500
G3 X56.17766497461929 Y71.7233502538071 I1.2715736040609138 J1.748730964467005
G3 X56.847715736040605 Y71.61675126903553 I0.6675126903553299 J2.0558375634517767
G3 X57.51522842639594 Y71.7233502538071 I0 J2.1624365482233503
G3 X58.11928934010152 Y72.03045685279187 I-0.6675126903553299 J2.0558375634517767
G3 X58.59644670050762 Y72.51015228426395 I-1.2715736040609138 J1.748730964467005
G3 X58.90355329949238 Y73.11167512690355 I-1.748730964467005 J1.2715736040609138
G3 X59.01015228426396 Y73.78172588832487 I-2.0558375634517767 J0.6675126903553299
G1 X59.01015228426396 Y73.78172588832487
G1 X59.01015228426396 Y73.78172588832487
G3 X58.90355329949238 Y74.44923857868021 I-2.1624365482233503 J0
G3 X58.59644670050762 Y75.05329949238579 I-2.0558375634517767 J-0.6675126903553299
G3 X58.11928934010152 Y75.53299492385787 I-1.748730964467005 J-1.2715736040609138
G3 X57.51522842639594 Y75.84010152284263 I-1.2715736040609138 J-1.748730964467005
G3 X56.847715736040605 Y75.94416243654823 I-0.6675126903553299 J-2.0558375634517767
G3 X56.17766497461929 Y75.84010152284263 I0 J-2.1624365482233503
G3 X55.576142131979694 Y75.53299492385787 I0.6675126903553299 J-2.0558375634517767
G3 X55.09644670050761 Y75.05329949238579 I1.2715736040609138 J-1.748730964467005
G3 X54.78934010152284 Y74.44923857868021 I1.748730964467005 J-1.2715736040609138
G3 X54.68527918781726 Y73.78172588832487 I2.0558375634517767 J-0.6675126903553299
G1 X54.68527918781726 Y73.78172588832487
G1 X54.68527918781726 Y73.78172588832487
G3 X54.78934010152284 Y73.11167512690355 I2.1624365482233503 J0
G3 X55.09644670050761 Y72.51015228426395 I2.0558375634517767 J0.6675126903553299
G0 Z5
G0 X116.79010152284263 Y73.11269035532995
G1 Z-1.5 F800
G3 X117.09644670050761 Y72.51015228426395 I2.0558375634517767 J0.6675126903553299 F1500
G3 X117.5761421319797 Y72.03045685279187 I1.748730964467005 J1.2715736040609138
G3 X118.17766497461929 Y71.7233502538071 I1.2715736040609138 J1.748730964467005
G3 X118.84771573604061 Y71.61675126903553 I0.6675126903553299 J2.0558375634517767
G3 X119.51522842639594 Y71.7233502538071 I0 J2.1624365482233503
G3 X120.11928934010152 Y72.03045685279187 I-0.6675126903553299 J2.0558375634517767
G3 X120.59644670050761 Y72.51015228426395 I-1.2715736040609138 J1.748730964467005
G3 X120.90355329949239 Y73.11167512690355 I-1.748730964467005 J1.2715736040609138
G3 X121.01015228426397 Y73.78172588832487 I-2.0558375634517767 J0.6675126903553299
G1 X121.01015228426397 Y73.78172588832487
G1 X121.01015228426397 Y73.78172588832487
G3 X120.90355329949239 Y74.44923857868021 I-2.1624365482233503 J0
G3 X120.59644670050761 Y75.05329949238579 I-2.0558375634517767 J-0.6675126903553299
G3 X120.11928934010152 Y75.53299492385787 I-1.748730964467005 J-1.2715736040609138
G3 X119.51522842639594 Y75.84010152284263 I-1.2715736040609138 J-1.748730964467005
G3 X118.84771573604061 Y75.94416243654823 I-0.6675126903553299 J-2.0558375634517767
G3 X118.17766497461929 Y75.84010152284263 I0 J-2.1624365482233503
G3 X117.5761421319797 Y75.53299492385787 I0.6675126903553299 J-2.0558375634517767
G3 X117.09644670050761 Y75.05329949238579 I1.2715736040609138 J-1.748730964467005
G3 X116.78934010152284 Y74.44923857868021 I1.748730964467005 J-1.2715736040609138
G3 X116.68527918781726 Y73.78172588832487 I2.0558375634517767 J-0.6675126903553299
G1 X116.68527918781726 Y73.78172588832487
G1 X116.68527918781726 Y73.78172588832487
G3 X116.78934010152284 Y73.11167512690355 I2.1624365482233503 J0
G0 Z5
G0 X116.79010152284263 Y103.11269035532995
G1 Z-1.5 F800
G3 X117.09644670050761 Y102.51015228426397 I2.0558375634517767 J0.6675126903553299 F1500
G3 X117.5761421319797 Y102.03045685279187 I1.748730964467005 J1.2715736040609138
G3 X118.17766497461929 Y101.72335025380711 I1.2715736040609138 J1.748730964467005
G3 X118.84771573604061 Y101.61675126903553 I0.6675126903553299 J2.0558375634517767
G3 X119.51522842639594 Y101.72335025380711 I0 J2.1624365482233503
G3 X120.11928934010152 Y102.03045685279187 I-0.6675126903553299 J2.0558375634517767
G3 X120.59644670050761 Y102.51015228426397 I-1.2715736040609138 J1.748730964467005
G3 X120.90355329949239 Y103.11167512690355 I-1.748730964467005 J1.2715736040609138
G3 X121.01015228426397 Y103.78172588832487 I-2.0558375634517767 J0.6675126903553299
G1 X121.01015228426397 Y103.78172588832487
G1 X121.01015228426397 Y103.78172588832487
G3 X120.90355329949239 Y104.4492385786802 I-2.1624365482233503 J0
G3 X120.59644670050761 Y105.05329949238579 I-2.0558375634517767 J-0.6675126903553299
G3 X120.11928934010152 Y105.53299492385787 I-1.748730964467005 J-1.2715736040609138
G3 X119.51522842639594 Y105.84010152284264 I-1.2715736040609138 J-1.748730964467005
G3 X118.84771573604061 Y105.94416243654821 I-0.6675126903553299 J-2.0558375634517767
G3 X118.17766497461929 Y105.84010152284264 I0 J-2.1624365482233503
G3 X117.5761421319797 Y105.53299492385787 I0.6675126903553299 J-2.0558375634517767
G3 X117.09644670050761 Y105.05329949238579 I1.2715736040609138 J-1.748730964467005
G3 X116.78934010152284 Y104.4492385786802 I1.748730964467005 J-1.2715736040609138
G3 X116.68527918781726 Y103.78172588832487 I2.0558375634517767 J-0.6675126903553299
G1 X116.68527918781726 Y103.78172588832487
G1 X116.68527918781726 Y103.78172588832487
G3 X116.78934010152284 Y103.11167512690355 I2.1624365482233503 J0
G0 Z5
G0 X91.63451776649747 Y86.19390862944162
G1 Z-3 F800
G1 X91.63451776649745 Y51.368020304568525 F1500
G1 X96.45939086294416 Y51.368020304568525
G1 X96.45939086294416 Y86.19289340101523
G1 X91.63451776649745 Y86.19289340101523
G0 Z5
G0 X79.23451776649746 Y86.19390862944162
G1 Z-3 F800
G1 X79.23350253807106 Y51.368020304568525 F1500
G1 X84.05837563451776 Y51.368020304568525
G1 X84.05837563451776 Y86.19289340101523
G1 X79.23350253807106 Y86.19289340101523
G0 Z5
G0 X110.43451776649746 Y51.19390862944162
G1 Z-3 F800
G1 X110.43401015228426 Y26.368020304568528 F1500
G1 X115.25888324873095 Y26.368020304568528
G1 X115.25888324873095 Y51.19289340101523
G1 X110.43401015228426 Y51.19289340101523
G0 Z5
G0 X60.618781725888326 Y51.19390862944162
G1 Z-3 F800
G1 X60.61928934010152 Y26.368020304568528 F1500
G1 X65.44416243654823 Y26.368020304568528
G1 X65.44416243654823 Y51.19289340101523
G1 X60.61928934010152 Y51.19289340101523
G0 Z5
G0 X63.29010152284264 Y129.9997461928934
G1 Z-3 F800
G3 X63.59644670050762 Y129.39593908629442 I2.0558375634517767 J0.6675126903553299 F1500
G3 X64.0761421319797 Y128.91878172588832 I1.748730964467005 J1.2715736040609138
G3 X64.67766497461929 Y128.61167512690355 I1.2715736040609138 J1.748730964467005
G3 X65.34771573604061 Y128.50507614213197 I0.6675126903553299 J2.0558375634517767
G3 X66.01522842639594 Y128.61167512690355 I0 J2.1624365482233503
G3 X66.61928934010152 Y128.91878172588832 I-0.6675126903553299 J2.0558375634517767
G3 X67.09644670050761 Y129.39593908629442 I-1.2715736040609138 J1.748730964467005
G3 X67.40355329949239 Y130 I-1.748730964467005 J1.2715736040609138
G3 X67.51015228426395 Y130.66751269035532 I-2.0558375634517767 J0.6675126903553299
G1 X67.51015228426395 Y130.66751269035532
G1 X67.51015228426395 Y130.67005076142132
G3 X67.40355329949239 Y131.33756345177665 I-2.1624365482233503 J0
G3 X67.09644670050761 Y131.94162436548223 I-2.0558375634517767 J-0.6675126903553299
G3 X66.61928934010152 Y132.41878172588832 I-1.748730964467005 J-1.2715736040609138
G3 X66.01522842639594 Y132.7258883248731 I-1.2715736040609138 J-1.748730964467005
G3 X65.34771573604061 Y132.83248730964465 I-0.6675126903553299 J-2.0558375634517767
G3 X64.67766497461929 Y132.7258883248731 I0 J-2.1624365482233503
G3 X64.0761421319797 Y132.41878172588832 I0.6675126903553299 J-2.0558375634517767
G3 X63.59644670050762 Y131.94162436548223 I1.2715736040609138 J-1.748730964467005
G3 X63.289340101522846 Y131.33756345177665 I1.748730964467005 J-1.2715736040609138
G3 X63.18527918781726 Y130.67005076142132 I2.0558375634517767 J-0.6675126903553299
G1 X63.18527918781726 Y130.66751269035532
G1 X63.18527918781726 Y130.66751269035532
G3 X63.289340101522846 Y130 I2.1624365482233503 J0
G0 Z5
G0 X63.29010152284264 Y114.9997461928934
G1 Z-3 F800
G3 X63.59644670050762 Y114.39593908629442 I2.0558375634517767 J0.6675126903553299 F1500
G3 X64.0761421319797 Y113.91878172588832 I1.748730964467005 J1.2715736040609138
G3 X64.67766497461929 Y113.61167512690356 I1.2715736040609138 J1.748730964467005
G3 X65.34771573604061 Y113.50507614213198 I0.6675126903553299 J2.0558375634517767
G3 X66.01522842639594 Y113.61167512690356 I0 J2.1624365482233503
G3 X66.61928934010152 Y113.91878172588832 I-0.6675126903553299 J2.0558375634517767
G3 X67.09644670050761 Y114.39593908629442 I-1.2715736040609138 J1.748730964467005
G3 X67.40355329949239 Y115 I-1.748730964467005 J1.2715736040609138
G3 X67.51015228426395 Y115.66751269035534 I-2.0558375634517767 J0.6675126903553299
G1 X67.51015228426395 Y115.66751269035534
G1 X67.51015228426395 Y115.67005076142132
G3 X67.40355329949239 Y116.33756345177665 I-2.1624365482233503 J0
G3 X67.09644670050761 Y116.94162436548224 I-2.0558375634517767 J-0.6675126903553299
G3 X66.61928934010152 Y117.41878172588832 I-1.748730964467005 J-1.2715736040609138
G3 X66.01522842639594 Y117.7258883248731 I-1.2715736040609138 J-1.748730964467005
G3 X65.34771573604061 Y117.83248730964466 I-0.6675126903553299 J-2.0558375634517767
G3 X64.67766497461929 Y117.7258883248731 I0 J-2.1624365482233503
G3 X64.0761421319797 Y117.41878172588832 I0.6675126903553299 J-2.0558375634517767
G3 X63.59644670050762 Y116.94162436548224 I1.2715736040609138 J-1.748730964467005
G3 X63.289340101522846 Y116.33756345177665 I1.748730964467005 J-1.2715736040609138
G3 X63.18527918781726 Y115.67005076142132 I2.0558375634517767 J-0.6675126903553299
G1 X63.18527918781726 Y115.66751269035534
G1 X63.18527918781726 Y115.66751269035534
G3 X63.289340101522846 Y115 I2.1624365482233503 J0
G0 Z5
G0 X112.40380710659899 Y131.33730964467006
G1 Z-3 F800
G3 X112.09644670050761 Y131.94162436548223 I-2.0558375634517767 J-0.6675126903553299 F1500
G3 X111.61928934010152 Y132.41878172588832 I-1.748730964467005 J-1.2715736040609138
G3 X111.01522842639595 Y132.7258883248731 I-1.2715736040609138 J-1.748730964467005
G3 X110.34771573604061 Y132.83248730964465 I-0.6675126903553299 J-2.0558375634517767
G3 X109.67766497461929 Y132.7258883248731 I0 J-2.1624365482233503
G3 X109.07614213197971 Y132.41878172588832 I0.6675126903553299 J-2.0558375634517767
G3 X108.59644670050761 Y131.94162436548223 I1.2715736040609138 J-1.748730964467005
G3 X108.28934010152284 Y131.33756345177665 I1.748730964467005 J-1.2715736040609138
G3 X108.18527918781726 Y130.67005076142132 I2.0558375634517767 J-0.6675126903553299
G1 X108.18527918781726 Y130.66751269035532
G1 X108.18527918781726 Y130.66751269035532
G3 X108.28934010152284 Y130 I2.1624365482233503 J0
G3 X108.59644670050761 Y129.39593908629442 I2.0558375634517767 J0.6675126903553299
G3 X109.07614213197971 Y128.91878172588832 I1.748730964467005 J1.2715736040609138
G3 X109.67766497461929 Y128.61167512690355 I1.2715736040609138 J1.748730964467005
G3 X110.34771573604061 Y128.50507614213197 I0.6675126903553299 J2.0558375634517767
G3 X111.01522842639595 Y128.61167512690355 I0 J2.1624365482233503
G3 X111.61928934010152 Y128.91878172588832 I-0.6675126903553299 J2.0558375634517767
G3 X112.09644670050761 Y129.39593908629442 I-1.2715736040609138 J1.748730964467005
G3 X112.40355329949239 Y130 I-1.748730964467005 J1.2715736040609138
G3 X112.51015228426397 Y130.66751269035532 I-2.0558375634517767 J0.6675126903553299
G1 X112.51015228426397 Y130.66751269035532
G1 X112.51015228426397 Y130.67005076142132
G3 X112.40355329949239 Y131.33756345177665 I-2.1624365482233503 J0
G0 Z5
G0 X112.40380710659899 Y116.33730964467006
G1 Z-3 F800
G3 X112.09644670050761 Y116.94162436548224 I-2.0558375634517767 J-0.6675126903553299 F1500
G3 X111.61928934010152 Y117.41878172588832 I-1.748730964467005 J-1.2715736040609138
G3 X111.01522842639595 Y117.7258883248731 I-1.2715736040609138 J-1.748730964467005
G3 X110.34771573604061 Y117.83248730964466 I-0.6675126903553299 J-2.0558375634517767
G3 X109.67766497461929 Y117.7258883248731 I0 J-2.1624365482233503
G3 X109.07614213197971 Y117.41878172588832 I0.6675126903553299 J-2.0558375634517767
G3 X108.59644670050761 Y116.94162436548224 I1.2715736040609138 J-1.748730964467005
G3 X108.28934010152284 Y116.33756345177665 I1.748730964467005 J-1.2715736040609138
G3 X108.18527918781726 Y115.67005076142132 I2.0558375634517767 J-0.6675126903553299
G1 X108.18527918781726 Y115.66751269035534
G1 X108.18527918781726 Y115.66751269035534
G3 X108.28934010152284 Y115 I2.1624365482233503 J0
G3 X108.59644670050761 Y114.39593908629442 I2.0558375634517767 J0.6675126903553299
G3 X109.07614213197971 Y113.91878172588832 I1.748730964467005 J1.2715736040609138
G3 X109.67766497461929 Y113.61167512690356 I1.2715736040609138 J1.748730964467005
G3 X110.34771573604061 Y113.50507614213198 I0.6675126903553299 J2.0558375634517767
G3 X111.01522842639595 Y113.61167512690356 I0 J2.1624365482233503
G3 X111.61928934010152 Y113.91878172588832 I-0.6675126903553299 J2.0558375634517767
G3 X112.09644670050761 Y114.39593908629442 I-1.2715736040609138 J1.748730964467005
G3 X112.40355329949239 Y115 I-1.748730964467005 J1.2715736040609138
G3 X112.51015228426397 Y115.66751269035534 I-2.0558375634517767 J0.6675126903553299
G1 X112.51015228426397 Y115.66751269035534
G1 X112.51015228426397 Y115.67005076142132
G3 X112.40355329949239 Y116.33756345177665 I-2.1624365482233503 J0
G0 Z5
G0 X58.90380710659898 Y104.4502538071066
G1 Z-3 F800
G3 X58.59644670050762 Y105.05329949238579 I-2.0558375634517767 J-0.6675126903553299 F1500
G3 X58.11928934010152 Y105.53299492385787 I-1.748730964467005 J-1.2715736040609138
G3 X57.51522842639594 Y105.84010152284264 I-1.2715736040609138 J-1.748730964467005
G3 X56.847715736040605 Y105.94416243654821 I-0.6675126903553299 J-2.0558375634517767
G3 X56.17766497461929 Y105.84010152284264 I0 J-2.1624365482233503
G3 X55.576142131979694 Y105.53299492385787 I0.6675126903553299 J-2.0558375634517767
G3 X55.09644670050761 Y105.05329949238579 I1.2715736040609138 J-1.748730964467005
G3 X54.78934010152284 Y104.4492385786802 I1.748730964467005 J-1.2715736040609138
G3 X54.68527918781726 Y103.78172588832487 I2.0558375634517767 J-0.6675126903553299
G1 X54.68527918781726 Y103.78172588832487
G1 X54.68527918781726 Y103.78172588832487
G3 X54.78934010152284 Y103.11167512690355 I2.1624365482233503 J0
G3 X55.09644670050761 Y102.51015228426397 I2.0558375634517767 J0.6675126903553299
G3 X55.576142131979694 Y102.03045685279187 I1.748730964467005 J1.2715736040609138
G3 X56.17766497461929 Y101.72335025380711 I1.2715736040609138 J1.748730964467005
G3 X56.847715736040605 Y101.61675126903553 I0.6675126903553299 J2.0558375634517767
G3 X57.51522842639594 Y101.72335025380711 I0 J2.1624365482233503
G3 X58.11928934010152 Y102.03045685279187 I-0.6675126903553299 J2.0558375634517767
G3 X58.59644670050762 Y102.51015228426397 I-1.2715736040609138 J1.748730964467005
G3 X58.90355329949238 Y103.11167512690355 I-1.748730964467005 J1.2715736040609138
G3 X59.01015228426396 Y103.78172588832487 I-2.0558375634517767 J0.6675126903553299
G1 X59.01015228426396 Y103.78172588832487
G1 X59.01015228426396 Y103.78172588832487
G3 X58.90355329949238 Y104.4492385786802 I-2.1624365482233503 J0
G0 Z5
G0 X55.097208121827414 Y72.50964467005076
G1 Z-3 F800
G3 X55.576142131979694 Y72.03045685279187 I1.748730964467005 J1.2715736040609138 F1500
G3 X56.17766497461929 Y71.7233502538071 I1.2715736040609138 J1.748730964467005
G3 X56.847715736040605 Y71.61675126903553 I0.6675126903553299 J2.0558375634517767
G3 X57.51522842639594 Y71.7233502538071 I0 J2.1624365482233503
G3 X58.11928934010152 Y72.03045685279187 I-0.6675126903553299 J2.0558375634517767
G3 X58.59644670050762 Y72.51015228426395 I-1.2715736040609138 J1.748730964467005
G3 X58.90355329949238 Y73.11167512690355 I-1.748730964467005 J1.2715736040609138
G3 X59.01015228426396 Y73.78172588832487 I-2.0558375634517767 J0.6675126903553299
G1 X59.01015228426396 Y73.78172588832487
G1 X59.01015228426396 Y73.78172588832487
G3 X58.90355329949238 Y74.44923857868021 I-2.1624365482233503 J0
G3 X58.59644670050762 Y75.05329949238579 I-2.0558375634517767 J-0.6675126903553299
G3 X58.11928934010152 Y75.53299492385787 I-1.748730964467005 J-1.2715736040609138
G3 X57.51522842639594 Y75.84010152284263 I-1.2715736040609138 J-1.748730964467005
G3 X56.847715736040605 Y75.94416243654823 I-0.6675126903553299 J-2.0558375634517767
G3 X56.17766497461929 Y75.84010152284263 I0 J-2.1624365482233503
G3 X55.576142131979694 Y75.53299492385787 I0.6675126903553299 J-2.0558375634517767
G3 X55.09644670050761 Y75.05329949238579 I1.2715736040609138 J-1.748730964467005
G3 X54.78934010152284 Y74.44923857868021 I1.748730964467005 J-1.2715736040609138
G3 X54.68527918781726 Y73.78172588832487 I2.0558375634517767 J-0.6675126903553299
G1 X54.68527918781726 Y73.78172588832487
G1 X54.68527918781726 Y73.78172588832487
G3 X54.78934010152284 Y73.11167512690355 I2.1624365482233503 J0
G3 X55.09644670050761 Y72.51015228426395 I2.0558375634517767 J0.6675126903553299
G0 Z5
G0 X116.79010152284263 Y73.11269035532995
G1 Z-3 F800
G3 X117.09644670050761 Y72.51015228426395 I2.0558375634517767 J0.6675126903553299 F1500
G3 X117.5761421319797 Y72.03045685279187 I1.748730964467005 J1.2715736040609138
G3 X118.17766497461929 Y71.7233502538071 I1.2715736040609138 J1.748730964467005
G3 X118.84771573604061 Y71.61675126903553 I0.6675126903553299 J2.0558375634517767
G3 X119.51522842639594 Y71.7233502538071 I0 J2.1624365482233503
G3 X120.11928934010152 Y72.03045685279187 I-0.6675126903553299 J2.0558375634517767
G3 X120.59644670050761 Y72.51015228426395 I-1.2715736040609138 J1.748730964467005
G3 X120.90355329949239 Y73.11167512690355 I-1.748730964467005 J1.2715736040609138
G3 X121.01015228426397 Y73.78172588832487 I-2.0558375634517767 J0.6675126903553299
G1 X121.01015228426397 Y73.78172588832487
G1 X121.01015228426397 Y73.78172588832487
G3 X120.90355329949239 Y74.44923857868021 I-2.1624365482233503 J0
G3 X120.59644670050761 Y75.05329949238579 I-2.0558375634517767 J-0.6675126903553299
G3 X120.11928934010152 Y75.53299492385787 I-1.748730964467005 J-1.2715736040609138
G3 X119.51522842639594 Y75.84010152284263 I-1.2715736040609138 J-1.748730964467005
G3 X118.84771573604061 Y75.94416243654823 I-0.6675126903553299 J-2.0558375634517767
G3 X118.17766497461929 Y75.84010152284263 I0 J-2.1624365482233503
G3 X117.5761421319797 Y75.53299492385787 I0.6675126903553299 J-2.0558375634517767
G3 X117.09644670050761 Y75.05329949238579 I1.2715736040609138 J-1.748730964467005
G3 X116.78934010152284 Y74.44923857868021 I1.748730964467005 J-1.2715736040609138
G3 X116.68527918781726 Y73.78172588832487 I2.0558375634517767 J-0.6675126903553299
G1 X116.68527918781726 Y73.78172588832487
G1 X116.68527918781726 Y73.78172588832487
G3 X116.78934010152284 Y73.11167512690355 I2.1624365482233503 J0
G0 Z5
G0 X116.79010152284263 Y103.11269035532995
G1 Z-3 F800
G3 X117.09644670050761 Y102.51015228426397 I2.0558375634517767 J0.6675126903553299 F1500
G3 X117.5761421319797 Y102.03045685279187 I1.748730964467005 J1.2715736040609138
G3 X118.17766497461929 Y101.72335025380711 I1.2715736040609138 J1.748730964467005
G3 X118.84771573604061 Y101.61675126903553 I0.6675126903553299 J2.0558375634517767
G3 X119.51522842639594 Y101.72335025380711 I0 J2.1624365482233503
G3 X120.11928934010152 Y102.03045685279187 I-0.6675126903553299 J2.0558375634517767
G3 X120.59644670050761 Y102.51015228426397 I-1.2715736040609138 J1.748730964467005
G3 X120.90355329949239 Y103.11167512690355 I-1.748730964467005 J1.2715736040609138
G3 X121.01015228426397 Y103.78172588832487 I-2.0558375634517767 J0.6675126903553299
G1 X121.01015228426397 Y103.78172588832487
G1 X121.01015228426397 Y103.78172588832487
G3 X120.90355329949239 Y104.4492385786802 I-2.1624365482233503 J0
G3 X120.59644670050761 Y105.05329949238579 I-2.0558375634517767 J-0.6675126903553299
G3 X120.11928934010152 Y105.53299492385787 I-1.748730964467005 J-1.2715736040609138
G3 X119.51522842639594 Y105.84010152284264 I-1.2715736040609138 J-1.748730964467005
G3 X118.84771573604061 Y105.94416243654821 I-0.6675126903553299 J-2.0558375634517767
G3 X118.17766497461929 Y105.84010152284264 I0 J-2.1624365482233503
G3 X117.5761421319797 Y105.53299492385787 I0.6675126903553299 J-2.0558375634517767
G3 X117.09644670050761 Y105.05329949238579 I1.2715736040609138 J-1.748730964467005
G3 X116.78934010152284 Y104.4492385786802 I1.748730964467005 J-1.2715736040609138
G3 X116.68527918781726 Y103.78172588832487 I2.0558375634517767 J-0.6675126903553299
G1 X116.68527918781726 Y103.78172588832487
G1 X116.68527918781726 Y103.78172588832487
G3 X116.78934010152284 Y103.11167512690355 I2.1624365482233503 J0
G0 Z5
G0 X91.63451776649747 Y86.19390862944162
G1 Z-3.5 F800
G1 X91.63451776649745 Y51.368020304568525 F1500
G1 X96.45939086294416 Y51.368020304568525
G1 X96.45939086294416 Y86.19289340101523
G1 X91.63451776649745 Y86.19289340101523
G0 Z5
G0 X79.23451776649746 Y86.19390862944162
G1 Z-3.5 F800
G1 X79.23350253807106 Y51.368020304568525 F1500
G1 X84.05837563451776 Y51.368020304568525
G1 X84.05837563451776 Y86.19289340101523
G1 X79.23350253807106 Y86.19289340101523
G0 Z5
G0 X110.43451776649746 Y51.19390862944162
G1 Z-3.5 F800
G1 X110.43401015228426 Y26.368020304568528 F1500
G1 X115.25888324873095 Y26.368020304568528
G1 X115.25888324873095 Y51.19289340101523
G1 X110.43401015228426 Y51.19289340101523
G0 Z5
G0 X60.618781725888326 Y51.19390862944162
G1 Z-3.5 F800
G1 X60.61928934010152 Y26.368020304568528 F1500
G1 X65.44416243654823 Y26.368020304568528
G1 X65.44416243654823 Y51.19289340101523
G1 X60.61928934010152 Y51.19289340101523
G0 Z5
G0 X63.29010152284264 Y129.9997461928934
G1 Z-3.5 F800
G3 X63.59644670050762 Y129.39593908629442 I2.0558375634517767 J0.6675126903553299 F1500
G3 X64.0761421319797 Y128.91878172588832 I1.748730964467005 J1.2715736040609138
G3 X64.67766497461929 Y128.61167512690355 I1.2715736040609138 J1.748730964467005
G3 X65.34771573604061 Y128.50507614213197 I0.6675126903553299 J2.0558375634517767
G3 X66.01522842639594 Y128.61167512690355 I0 J2.1624365482233503
G3 X66.61928934010152 Y128.91878172588832 I-0.6675126903553299 J2.0558375634517767
G3 X67.09644670050761 Y129.39593908629442 I-1.2715736040609138 J1.748730964467005
G3 X67.40355329949239 Y130 I-1.748730964467005 J1.2715736040609138
G3 X67.51015228426395 Y130.66751269035532 I-2.0558375634517767 J0.6675126903553299
G1 X67.51015228426395 Y130.66751269035532
G1 X67.51015228426395 Y130.67005076142132
G3 X67.40355329949239 Y131.33756345177665 I-2.1624365482233503 J0
G3 X67.09644670050761 Y131.94162436548223 I-2.0558375634517767 J-0.6675126903553299
G3 X66.61928934010152 Y132.41878172588832 I-1.748730964467005 J-1.2715736040609138
G3 X66.01522842639594 Y132.7258883248731 I-1.2715736040609138 J-1.748730964467005
G3 X65.34771573604061 Y132.83248730964465 I-0.6675126903553299 J-2.0558375634517767
G3 X64.67766497461929 Y132.7258883248731 I0 J-2.1624365482233503
G3 X64.0761421319797 Y132.41878172588832 I0.6675126903553299 J-2.0558375634517767
G3 X63.59644670050762 Y131.94162436548223 I1.2715736040609138 J-1.748730964467005
G3 X63.289340101522846 Y131.33756345177665 I1.748730964467005 J-1.2715736040609138
G3 X63.18527918781726 Y130.67005076142132 I2.0558375634517767 J-0.6675126903553299
G1 X63.18527918781726 Y130.66751269035532
G1 X63.18527918781726 Y130.66751269035532
G3 X63.289340101522846 Y130 I2.1624365482233503 J0
G0 Z5
G0 X63.29010152284264 Y114.9997461928934
G1 Z-3.5 F800
G3 X63.59644670050762 Y114.39593908629442 I2.0558375634517767 J0.6675126903553299 F1500
G3 X64.0761421319797 Y113.91878172588832 I1.748730964467005 J1.2715736040609138
G3 X64.67766497461929 Y113.61167512690356 I1.2715736040609138 J1.748730964467005
G3 X65.34771573604061 Y113.50507614213198 I0.6675126903553299 J2.0558375634517767
G3 X66.01522842639594 Y113.61167512690356 I0 J2.1624365482233503
G3 X66.61928934010152 Y113.91878172588832 I-0.6675126903553299 J2.0558375634517767
G3 X67.09644670050761 Y114.39593908629442 I-1.2715736040609138 J1.748730964467005
G3 X67.40355329949239 Y115 I-1.748730964467005 J1.2715736040609138
G3 X67.51015228426395 Y115.66751269035534 I-2.0558375634517767 J0.6675126903553299
G1 X67.51015228426395 Y115.66751269035534
G1 X67.51015228426395 Y115.67005076142132
G3 X67.40355329949239 Y116.33756345177665 I-2.1624365482233503 J0
G3 X67.09644670050761 Y116.94162436548224 I-2.0558375634517767 J-0.6675126903553299
G3 X66.61928934010152 Y117.41878172588832 I-1.748730964467005 J-1.2715736040609138
G3 X66.01522842639594 Y117.7258883248731 I-1.2715736040609138 J-1.748730964467005
G3 X65.34771573604061 Y117.83248730964466 I-0.6675126903553299 J-2.0558375634517767
G3 X64.67766497461929 Y117.7258883248731 I0 J-2.1624365482233503
G3 X64.0761421319797 Y117.41878172588832 I0.6675126903553299 J-2.0558375634517767
G3 X63.59644670050762 Y116.94162436548224 I1.2715736040609138 J-1.748730964467005
G3 X63.289340101522846 Y116.33756345177665 I1.748730964467005 J-1.2715736040609138
G3 X63.18527918781726 Y115.67005076142132 I2.0558375634517767 J-0.6675126903553299
G1 X63.18527918781726 Y115.66751269035534
G1 X63.18527918781726 Y115.66751269035534
G3 X63.289340101522846 Y115 I2.1624365482233503 J0
G0 Z5
G0 X112.40380710659899 Y131.33730964467006
G1 Z-3.5 F800
G3 X112.09644670050761 Y131.94162436548223 I-2.0558375634517767 J-0.6675126903553299 F1500
G3 X111.61928934010152 Y132.41878172588832 I-1.748730964467005 J-1.2715736040609138
G3 X111.01522842639595 Y132.7258883248731 I-1.2715736040609138 J-1.748730964467005
G3 X110.34771573604061 Y132.83248730964465 I-0.6675126903553299 J-2.0558375634517767
G3 X109.67766497461929 Y132.7258883248731 I0 J-2.1624365482233503
G3 X109.07614213197971 Y132.41878172588832 I0.6675126903553299 J-2.0558375634517767
G3 X108.59644670050761 Y131.94162436548223 I1.2715736040609138 J-1.748730964467005
G3 X108.28934010152284 Y131.33756345177665 I1.748730964467005 J-1.2715736040609138
G3 X108.18527918781726 Y130.67005076142132 I2.0558375634517767 J-0.6675126903553299
G1 X108.18527918781726 Y130.66751269035532
G1 X108.18527918781726 Y130.66751269035532
G3 X108.28934010152284 Y130 I2.1624365482233503 J0
G3 X108.59644670050761 Y129.39593908629442 I2.0558375634517767 J0.6675126903553299
G3 X109.07614213197971 Y128.91878172588832 I1.748730964467005 J1.2715736040609138
G3 X109.67766497461929 Y128.61167512690355 I1.2715736040609138 J1.748730964467005
G3 X110.34771573604061 Y128.50507614213197 I0.6675126903553299 J2.0558375634517767
G3 X111.01522842639595 Y128.61167512690355 I0 J2.1624365482233503
G3 X111.61928934010152 Y128.91878172588832 I-0.6675126903553299 J2.0558375634517767
G3 X112.09644670050761 Y129.39593908629442 I-1.2715736040609138 J1.748730964467005
G3 X112.40355329949239 Y130 I-1.748730964467005 J1.2715736040609138
G3 X112.51015228426397 Y130.66751269035532 I-2.0558375634517767 J0.6675126903553299
G1 X112.51015228426397 Y130.66751269035532
G1 X112.51015228426397 Y130.67005076142132
G3 X112.40355329949239 Y131.33756345177665 I-2.1624365482233503 J0
G0 Z5
G0 X112.40380710659899 Y116.33730964467006
G1 Z-3.5 F800
G3 X112.09644670050761 Y116.94162436548224 I-2.0558375634517767 J-0.6675126903553299 F1500
G3 X111.61928934010152 Y117.41878172588832 I-1.748730964467005 J-1.2715736040609138
G3 X111.01522842639595 Y117.7258883248731 I-1.2715736040609138 J-1.748730964467005
G3 X110.34771573604061 Y117.83248730964466 I-0.6675126903553299 J-2.0558375634517767
G3 X109.67766497461929 Y117.7258883248731 I0 J-2.1624365482233503
G3 X109.07614213197971 Y117.41878172588832 I0.6675126903553299 J-2.0558375634517767
G3 X108.59644670050761 Y116.94162436548224 I1.2715736040609138 J-1.748730964467005
G3 X108.28934010152284 Y116.33756345177665 I1.748730964467005 J-1.2715736040609138
G3 X108.18527918781726 Y115.67005076142132 I2.0558375634517767 J-0.6675126903553299
G1 X108.18527918781726 Y115.66751269035534
G1 X108.18527918781726 Y115.66751269035534
G3 X108.28934010152284 Y115 I2.1624365482233503 J0
G3 X108.59644670050761 Y114.39593908629442 I2.0558375634517767 J0.6675126903553299
G3 X109.07614213197971 Y113.91878172588832 I1.748730964467005 J1.2715736040609138
G3 X109.67766497461929 Y113.61167512690356 I1.2715736040609138 J1.748730964467005
G3 X110.34771573604061 Y113.50507614213198 I0.6675126903553299 J2.0558375634517767
G3 X111.01522842639595 Y113.61167512690356 I0 J2.1624365482233503
G3 X111.61928934010152 Y113.91878172588832 I-0.6675126903553299 J2.0558375634517767
G3 X112.09644670050761 Y114.39593908629442 I-1.2715736040609138 J1.748730964467005
G3 X112.40355329949239 Y115 I-1.748730964467005 J1.2715736040609138
G3 X112.51015228426397 Y115.66751269035534 I-2.0558375634517767 J0.6675126903553299
G1 X112.51015228426397 Y115.66751269035534
G1 X112.51015228426397 Y115.67005076142132
G3 X112.40355329949239 Y116.33756345177665 I-2.1624365482233503 J0
G0 Z5
G0 X58.90380710659898 Y104.4502538071066
G1 Z-3.5 F800
G3 X58.59644670050762 Y105.05329949238579 I-2.0558375634517767 J-0.6675126903553299 F1500
G3 X58.11928934010152 Y105.53299492385787 I-1.748730964467005 J-1.2715736040609138
G3 X57.51522842639594 Y105.84010152284264 I-1.2715736040609138 J-1.748730964467005
G3 X56.847715736040605 Y105.94416243654821 I-0.6675126903553299 J-2.0558375634517767
G3 X56.17766497461929 Y105.84010152284264 I0 J-2.1624365482233503
G3 X55.576142131979694 Y105.53299492385787 I0.6675126903553299 J-2.0558375634517767
G3 X55.09644670050761 Y105.05329949238579 I1.2715736040609138 J-1.748730964467005
G3 X54.78934010152284 Y104.4492385786802 I1.748730964467005 J-1.2715736040609138
G3 X54.68527918781726 Y103.78172588832487 I2.0558375634517767 J-0.6675126903553299
G1 X54.68527918781726 Y103.78172588832487
G1 X54.68527918781726 Y103.78172588832487
G3 X54.78934010152284 Y103.11167512690355 I2.1624365482233503 J0
G3 X55.09644670050761 Y102.51015228426397 I2.0558375634517767 J0.6675126903553299
G3 X55.576142131979694 Y102.03045685279187 I1.748730964467005 J1.2715736040609138
G3 X56.17766497461929 Y101.72335025380711 I1.2715736040609138 J1.748730964467005
G3 X56.847715736040605 Y101.61675126903553 I0.6675126903553299 J2.0558375634517767
G3 X57.51522842639594 Y101.72335025380711 I0 J2.1624365482233503
G3 X58.11928934010152 Y102.03045685279187 I-0.6675126903553299 J2.0558375634517767
G3 X58.59644670050762 Y102.51015228426397 I-1.2715736040609138 J1.748730964467005
G3 X58.90355329949238 Y103.11167512690355 I-1.748730964467005 J1.2715736040609138
G3 X59.01015228426396 Y103.78172588832487 I-2.0558375634517767 J0.6675126903553299
G1 X59.01015228426396 Y103.78172588832487
G1 X59.01015228426396 Y103.78172588832487
G3 X58.90355329949238 Y104.4492385786802 I-2.1624365482233503 J0
G0 Z5
G0 X55.097208121827414 Y72.50964467005076
G1 Z-3.5 F800
G3 X55.576142131979694 Y72.03045685279187 I1.748730964467005 J1.2715736040609138 F1500
G3 X56.17766497461929 Y71.7233502538071 I1.2715736040609138 J1.748730964467005
G3 X56.847715736040605 Y71.61675126903553 I0.6675126903553299 J2.0558375634517767
G3 X57.51522842639594 Y71.7233502538071 I0 J2.1624365482233503
G3 X58.11928934010152 Y72.03045685279187 I-0.6675126903553299 J2.0558375634517767
G3 X58.59644670050762 Y72.51015228426395 I-1.2715736040609138 J1.748730964467005
G3 X58.90355329949238 Y73.11167512690355 I-1.748730964467005 J1.2715736040609138
G3 X59.01015228426396 Y73.78172588832487 I-2.0558375634517767 J0.6675126903553299
G1 X59.01015228426396 Y73.78172588832487
G1 X59.01015228426396 Y73.78172588832487
G3 X58.90355329949238 Y74.44923857868021 I-2.1624365482233503 J0
G3 X58.59644670050762 Y75.05329949238579 I-2.0558375634517767 J-0.6675126903553299
G3 X58.11928934010152 Y75.53299492385787 I-1.748730964467005 J-1.2715736040609138
G3 X57.51522842639594 Y75.84010152284263 I-1.2715736040609138 J-1.748730964467005
G3 X56.847715736040605 Y75.94416243654823 I-0.6675126903553299 J-2.0558375634517767
G3 X56.17766497461929 Y75.84010152284263 I0 J-2.1624365482233503
G3 X55.576142131979694 Y75.53299492385787 I0.6675126903553299 J-2.0558375634517767
G3 X55.09644670050761 Y75.05329949238579 I1.2715736040609138 J-1.748730964467005
G3 X54.78934010152284 Y74.44923857868021 I1.748730964467005 J-1.2715736040609138
G3 X54.68527918781726 Y73.78172588832487 I2.0558375634517767 J-0.6675126903553299
G1 X54.68527918781726 Y73.78172588832487
G1 X54.68527918781726 Y73.78172588832487
G3 X54.78934010152284 Y73.11167512690355 I2.1624365482233503 J0
G3 X55.09644670050761 Y72.51015228426395 I2.0558375634517767 J0.6675126903553299
G0 Z5
G0 X116.79010152284263 Y73.11269035532995
G1 Z-3.5 F800
G3 X117.09644670050761 Y72.51015228426395 I2.0558375634517767 J0.6675126903553299 F1500
G3 X117.5761421319797 Y72.03045685279187 I1.748730964467005 J1.2715736040609138
G3 X118.17766497461929 Y71.7233502538071 I1.2715736040609138 J1.748730964467005
G3 X118.84771573604061 Y71.61675126903553 I0.6675126903553299 J2.0558375634517767
G3 X119.51522842639594 Y71.7233502538071 I0 J2.1624365482233503
G3 X120.11928934010152 Y72.03045685279187 I-0.6675126903553299 J2.0558375634517767
G3 X120.59644670050761 Y72.51015228426395 I-1.2715736040609138 J1.748730964467005
G3 X120.90355329949239 Y73.11167512690355 I-1.748730964467005 J1.2715736040609138
G3 X121.01015228426397 Y73.78172588832487 I-2.0558375634517767 J0.6675126903553299
G1 X121.01015228426397 Y73.78172588832487
G1 X121.01015228426397 Y73.78172588832487
G3 X120.90355329949239 Y74.44923857868021 I-2.1624365482233503 J0
G3 X120.59644670050761 Y75.05329949238579 I-2.0558375634517767 J-0.6675126903553299
G3 X120.11928934010152 Y75.53299492385787 I-1.748730964467005 J-1.2715736040609138
G3 X119.51522842639594 Y75.84010152284263 I-1.2715736040609138 J-1.748730964467005
G3 X118.84771573604061 Y75.94416243654823 I-0.6675126903553299 J-2.0558375634517767
G3 X118.17766497461929 Y75.84010152284263 I0 J-2.1624365482233503
G3 X117.5761421319797 Y75.53299492385787 I0.6675126903553299 J-2.0558375634517767
G3 X117.09644670050761 Y75.05329949238579 I1.2715736040609138 J-1.748730964467005
G3 X116.78934010152284 Y74.44923857868021 I1.748730964467005 J-1.2715736040609138
G3 X116.68527918781726 Y73.78172588832487 I2.0558375634517767 J-0.6675126903553299
G1 X116.68527918781726 Y73.78172588832487
G1 X116.68527918781726 Y73.78172588832487
G3 X116.78934010152284 Y73.11167512690355 I2.1624365482233503 J0
G0 Z5
G0 X116.79010152284263 Y103.11269035532995
G1 Z-3.5 F800
G3 X117.09644670050761 Y102.51015228426397 I2.0558375634517767 J0.6675126903553299 F1500
G3 X117.5761421319797 Y102.03045685279187 I1.748730964467005 J1.2715736040609138
G3 X118.17766497461929 Y101.72335025380711 I1.2715736040609138 J1.748730964467005
G3 X118.84771573604061 Y101.61675126903553 I0.6675126903553299 J2.0558375634517767
G3 X119.51522842639594 Y101.72335025380711 I0 J2.1624365482233503
G3 X120.11928934010152 Y102.03045685279187 I-0.6675126903553299 J2.0558375634517767
G3 X120.59644670050761 Y102.51015228426397 I-1.2715736040609138 J1.748730964467005
G3 X120.90355329949239 Y103.11167512690355 I-1.748730964467005 J1.2715736040609138
G3 X121.01015228426397 Y103.78172588832487 I-2.0558375634517767 J0.6675126903553299
G1 X121.01015228426397 Y103.78172588832487
G1 X121.01015228426397 Y103.78172588832487
G3 X120.90355329949239 Y104.4492385786802 I-2.1624365482233503 J0
G3 X120.59644670050761 Y105.05329949238579 I-2.0558375634517767 J-0.6675126903553299
G3 X120.11928934010152 Y105.53299492385787 I-1.748730964467005 J-1.2715736040609138
G3 X119.51522842639594 Y105.84010152284264 I-1.2715736040609138 J-1.748730964467005
G3 X118.84771573604061 Y105.94416243654821 I-0.6675126903553299 J-2.0558375634517767
G3 X118.17766497461929 Y105.84010152284264 I0 J-2.1624365482233503
G3 X117.5761421319797 Y105.53299492385787 I0.6675126903553299 J-2.0558375634517767
G3 X117.09644670050761 Y105.05329949238579 I1.2715736040609138 J-1.748730964467005
G3 X116.78934010152284 Y104.4492385786802 I1.748730964467005 J-1.2715736040609138
G3 X116.68527918781726 Y103.78172588832487 I2.0558375634517767 J-0.6675126903553299
G1 X116.68527918781726 Y103.78172588832487
G1 X116.68527918781726 Y103.78172588832487
G3 X116.78934010152284 Y103.11167512690355 I2.1624365482233503 J0

(drill holes)
G0 Z5
G0 X118.84695431472082 Y73.78147208121827
G1 Z-1.5 F800
G1 Z0 F800
G1 Z-3 F800
G1 Z0 F800
G1 Z-4.5 F800
G1 Z0 F800
G1 Z-6 F800
G1 Z0 F800
G1 Z-7.5 F800
G1 Z0 F800
G1 Z-8 F800
G1 Z0 F800
G0 Z5
G0 X56.84695431472081 Y73.78147208121827
G1 Z-1.5 F800
G1 Z0 F800
G1 Z-3 F800
G1 Z0 F800
G1 Z-4.5 F800
G1 Z0 F800
G1 Z-6 F800
G1 Z0 F800
G1 Z-7.5 F800
G1 Z0 F800
G1 Z-8 F800
G1 Z0 F800
G0 Z5
G0 X118.84695431472082 Y103.78147208121827
G1 Z-1.5 F800
G1 Z0 F800
G1 Z-3 F800
G1 Z0 F800
G1 Z-4.5 F800
G1 Z0 F800
G1 Z-6 F800
G1 Z0 F800
G1 Z-7.5 F800
G1 Z0 F800
G1 Z-8 F800
G1 Z0 F800
G0 Z5
G0 X56.84695431472081 Y103.78147208121827
G1 Z-1.5 F800
G1 Z0 F800
G1 Z-3 F800
G1 Z0 F800
G1 Z-4.5 F800
G1 Z0 F800
G1 Z-6 F800
G1 Z0 F800
G1 Z-7.5 F800
G1 Z0 F800
G1 Z-8 F800
G1 Z0 F800
G0 Z5
G0 X110.34695431472082 Y115.66852791878172
G1 Z-1.5 F800
G1 Z0 F800
G1 Z-3 F800
G1 Z0 F800
G1 Z-4.5 F800
G1 Z0 F800
G1 Z-6 F800
G1 Z0 F800
G1 Z-7.5 F800
G1 Z0 F800
G1 Z-8 F800
G1 Z0 F800
G0 Z5
G0 X65.34695431472082 Y115.66852791878172
G1 Z-1.5 F800
G1 Z0 F800
G1 Z-3 F800
G1 Z0 F800
G1 Z-4.5 F800
G1 Z0 F800
G1 Z-6 F800
G1 Z0 F800
G1 Z-7.5 F800
G1 Z0 F800
G1 Z-8 F800
G1 Z0 F800
G0 Z5
G0 X110.34695431472082 Y130.66852791878173
G1 Z-1.5 F800
G1 Z0 F800
G1 Z-3 F800
G1 Z0 F800
G1 Z-4.5 F800
G1 Z0 F800
G1 Z-6 F800
G1 Z0 F800
G1 Z-7.5 F800
G1 Z0 F800
G1 Z-8 F800
G1 Z0 F800
G0 Z5
G0 X65.34695431472082 Y130.66852791878173
G1 Z-1.5 F800
G1 Z0 F800
G1 Z-3 F800
G1 Z0 F800
G1 Z-4.5 F800
G1 Z0 F800
G1 Z-6 F800
G1 Z0 F800
G1 Z-7.5 F800
G1 Z0 F800
G1 Z-8 F800
G1 Z0 F800

(profile wings)
G0 Z5
G0 X125.43451776649746 Y149.50558375634517
G1 Z-1.5 F800
G1 X125.43401015228426 Y28.058375634517766 F1500
G3 X133.76395939086294 Y33.98984771573604 I-39.99238578680203 J64.96700507614213
G3 X142.42131979695432 Y42.49746192893401 I-42.42639593908629 J51.829949238578685
G3 X149.4010152284264 Y52.42639593908629 I-51.08121827411168 J43.32233502538071
G3 X154.88832487309645 Y64.18020304568527 I-66.13197969543148 J38.03553299492386
G3 X158.30456852791878 Y76.69289340101523 I-71.61928934010152 J26.281725888324875
G3 X159.40609137055839 Y88.78172588832487 I-65.88071065989848 J12.086294416243655
G3 X158.30456852791878 Y100.86802030456853 I-66.97969543147208 J0
G3 X154.88832487309645 Y113.38324873096447 I-75.03807106598985 J-13.766497461928935
G3 X149.4010152284264 Y125.13705583756345 I-71.61928934010152 J-26.281725888324875
G3 X142.42131979695432 Y135.06598984771574 I-58.06091370558376 J-33.39340101522843
G3 X133.76395939086294 Y143.5736040609137 I-51.08121827411168 J-43.32233502538071
G3 X125.43401015228426 Y149.50507614213197 I-48.32233502538071 J-59.03553299492386
G1 Z-3 F800
G1 X125.43401015228426 Y28.058375634517766 F1500
G3 X133.76395939086294 Y33.98984771573604 I-39.99238578680203 J64.96700507614213
G3 X142.42131979695432 Y42.49746192893401 I-42.42639593908629 J51.829949238578685
G3 X149.4010152284264 Y52.42639593908629 I-51.08121827411168 J43.32233502538071
G3 X154.88832487309645 Y64.18020304568527 I-66.13197969543148 J38.03553299492386
G3 X158.30456852791878 Y76.69289340101523 I-71.61928934010152 J26.281725888324875
G3 X159.40609137055839 Y88.78172588832487 I-65.88071065989848 J12.086294416243655
G3 X158.30456852791878 Y100.86802030456853 I-66.97969543147208 J0
G3 X154.88832487309645 Y113.38324873096447 I-75.03807106598985 J-13.766497461928935
G3 X149.4010152284264 Y125.13705583756345 I-71.61928934010152 J-26.281725888324875
G3 X142.42131979695432 Y135.06598984771574 I-58.06091370558376 J-33.39340101522843
G3 X133.76395939086294 Y143.5736040609137 I-51.08121827411168 J-43.32233502538071
G3 X125.43401015228426 Y149.50507614213197 I-48.32233502538071 J-59.03553299492386
G1 Z-4.5 F800
G1 X125.43401015228426 Y28.058375634517766 F1500
G3 X133.76395939086294 Y33.98984771573604 I-39.99238578680203 J64.96700507614213
G3 X142.42131979695432 Y42.49746192893401 I-42.42639593908629 J51.829949238578685
G3 X149.4010152284264 Y52.42639593908629 I-51.08121827411168 J43.32233502538071
G3 X154.88832487309645 Y64.18020304568527 I-66.13197969543148 J38.03553299492386
G3 X158.30456852791878 Y76.69289340101523 I-71.61928934010152 J26.281725888324875
G3 X159.40609137055839 Y88.78172588832487 I-65.88071065989848 J12.086294416243655
G3 X158.30456852791878 Y100.86802030456853 I-66.97969543147208 J0
G3 X154.88832487309645 Y113.38324873096447 I-75.03807106598985 J-13.766497461928935
G3 X149.4010152284264 Y125.13705583756345 I-71.61928934010152 J-26.281725888324875
G3 X142.42131979695432 Y135.06598984771574 I-58.06091370558376 J-33.39340101522843
G3 X133.76395939086294 Y143.5736040609137 I-51.08121827411168 J-43.32233502538071
G3 X125.43401015228426 Y149.50507614213197 I-48.32233502538071 J-59.03553299492386
G1 Z-6 F800
G1 X125.43401015228426 Y28.058375634517766 F1500
G3 X133.76395939086294 Y33.98984771573604 I-39.99238578680203 J64.96700507614213
G3 X142.42131979695432 Y42.49746192893401 I-42.42639593908629 J51.829949238578685
G3 X149.4010152284264 Y52.42639593908629 I-51.08121827411168 J43.32233502538071
G3 X154.88832487309645 Y64.18020304568527 I-66.13197969543148 J38.03553299492386
G3 X158.30456852791878 Y76.69289340101523 I-71.61928934010152 J26.281725888324875
G3 X159.40609137055839 Y88.78172588832487 I-65.88071065989848 J12.086294416243655
G3 X158.30456852791878 Y100.86802030456853 I-66.97969543147208 J0
G3 X154.88832487309645 Y113.38324873096447 I-75.03807106598985 J-13.766497461928935
G3 X149.4010152284264 Y125.13705583756345 I-71.61928934010152 J-26.281725888324875
G3 X142.42131979695432 Y135.06598984771574 I-58.06091370558376 J-33.39340101522843
G3 X133.76395939086294 Y143.5736040609137 I-51.08121827411168 J-43.32233502538071
G3 X125.43401015228426 Y149.50507614213197 I-48.32233502538071 J-59.03553299492386
G1 Z-7.5 F800
G1 X125.43401015228426 Y28.058375634517766 F1500
G3 X133.76395939086294 Y33.98984771573604 I-39.99238578680203 J64.96700507614213
G3 X142.42131979695432 Y42.49746192893401 I-42.42639593908629 J51.829949238578685
G3 X149.4010152284264 Y52.42639593908629 I-51.08121827411168 J43.32233502538071
G3 X154.88832487309645 Y64.18020304568527 I-66.13197969543148 J38.03553299492386
G3 X158.30456852791878 Y76.69289340101523 I-71.61928934010152 J26.281725888324875
G3 X159.40609137055839 Y88.78172588832487 I-65.88071065989848 J12.086294416243655
G3 X158.30456852791878 Y100.86802030456853 I-66.97969543147208 J0
G3 X154.88832487309645 Y113.38324873096447 I-75.03807106598985 J-13.766497461928935
G3 X149.4010152284264 Y125.13705583756345 I-71.61928934010152 J-26.281725888324875
G3 X142.42131979695432 Y135.06598984771574 I-58.06091370558376 J-33.39340101522843
G3 X133.76395939086294 Y143.5736040609137 I-51.08121827411168 J-43.32233502538071
G3 X125.43401015228426 Y149.50507614213197 I-48.32233502538071 J-59.03553299492386
G1 Z-8 F800
G1 X125.43401015228426 Y28.058375634517766 F1500
G3 X133.76395939086294 Y33.98984771573604 I-39.99238578680203 J64.96700507614213
G3 X142.42131979695432 Y42.49746192893401 I-42.42639593908629 J51.829949238578685
G3 X149.4010152284264 Y52.42639593908629 I-51.08121827411168 J43.32233502538071
G3 X154.88832487309645 Y64.18020304568527 I-66.13197969543148 J38.03553299492386
G3 X158.30456852791878 Y76.69289340101523 I-71.61928934010152 J26.281725888324875
G3 X159.40609137055839 Y88.78172588832487 I-65.88071065989848 J12.086294416243655
G3 X158.30456852791878 Y100.86802030456853 I-66.97969543147208 J0
G3 X154.88832487309645 Y113.38324873096447 I-75.03807106598985 J-13.766497461928935
G3 X149.4010152284264 Y125.13705583756345 I-71.61928934010152 J-26.281725888324875
G3 X142.42131979695432 Y135.06598984771574 I-58.06091370558376 J-33.39340101522843
G3 X133.76395939086294 Y143.5736040609137 I-51.08121827411168 J-43.32233502538071
G3 X125.43401015228426 Y149.50507614213197 I-48.32233502538071 J-59.03553299492386
G0 Z5
G0 X50.259390862944166 Y28.05736040609137
G1 Z-1.5 F800
G1 X50.25888324873097 Y149.50507614213197 F1500
G3 X41.92893401015229 Y143.5736040609137 I39.99238578680203 J-64.96700507614213
G3 X33.2741116751269 Y135.06598984771574 I42.42639593908629 J-51.829949238578685
G3 X26.294416243654823 Y125.13705583756345 I51.08121827411168 J-43.32233502538071
G3 X20.804568527918782 Y113.38324873096447 I66.13197969543148 J-38.03553299492386
G3 X17.388324873096444 Y100.86802030456853 I71.61928934010152 J-26.281725888324875
G3 X16.289340101522843 Y88.78172588832487 I65.88071065989848 J-12.086294416243655
G3 X17.388324873096444 Y76.69289340101523 I66.97969543147208 J0
G3 X20.804568527918782 Y64.18020304568527 I75.03807106598985 J13.766497461928935
G3 X26.294416243654823 Y52.42639593908629 I71.61928934010152 J26.281725888324875
G3 X33.2741116751269 Y42.49746192893401 I58.06091370558376 J33.39340101522843
G3 X41.92893401015229 Y33.98984771573604 I51.08121827411168 J43.32233502538071
G3 X50.25888324873097 Y28.058375634517766 I48.32233502538071 J59.03553299492386
G1 Z-3 F800
G1 X50.25888324873097 Y149.50507614213197 F1500
G3 X41.92893401015229 Y143.5736040609137 I39.99238578680203 J-64.96700507614213
G3 X33.2741116751269 Y135.06598984771574 I42.42639593908629 J-51.829949238578685
G3 X26.294416243654823 Y125.13705583756345 I51.08121827411168 J-43.32233502538071
G3 X20.804568527918782 Y113.38324873096447 I66.13197969543148 J-38.03553299492386
G3 X17.388324873096444 Y100.86802030456853 I71.61928934010152 J-26.281725888324875
G3 X16.289340101522843 Y88.78172588832487 I65.88071065989848 J-12.086294416243655
G3 X17.388324873096444 Y76.69289340101523 I66.97969543147208 J0
G3 X20.804568527918782 Y64.18020304568527 I75.03807106598985 J13.766497461928935
G3 X26.294416243654823 Y52.42639593908629 I71.61928934010152 J26.281725888324875
G3 X33.2741116751269 Y42.49746192893401 I58.06091370558376 J33.39340101522843
G3 X41.92893401015229 Y33.98984771573604 I51.08121827411168 J43.32233502538071
G3 X50.25888324873097 Y28.058375634517766 I48.32233502538071 J59.03553299492386
G1 Z-4.5 F800
G1 X50.25888324873097 Y149.50507614213197 F1500
G3 X41.92893401015229 Y143.5736040609137 I39.99238578680203 J-64.96700507614213
G3 X33.2741116751269 Y135.06598984771574 I42.42639593908629 J-51.829949238578685
G3 X26.294416243654823 Y125.13705583756345 I51.08121827411168 J-43.32233502538071
G3 X20.804568527918782 Y113.38324873096447 I66.13197969543148 J-38.03553299492386
G3 X17.388324873096444 Y100.86802030456853 I71.61928934010152 J-26.281725888324875
G3 X16.289340101522843 Y88.78172588832487 I65.88071065989848 J-12.086294416243655
G3 X17.388324873096444 Y76.69289340101523 I66.97969543147208 J0
G3 X20.804568527918782 Y64.18020304568527 I75.03807106598985 J13.766497461928935
G3 X26.294416243654823 Y52.42639593908629 I71.61928934010152 J26.281725888324875
G3 X33.2741116751269 Y42.49746192893401 I58.06091370558376 J33.39340101522843
G3 X41.92893401015229 Y33.98984771573604 I51.08121827411168 J43.32233502538071
G3 X50.25888324873097 Y28.058375634517766 I48.32233502538071 J59.03553299492386
G1 Z-6 F800
G1 X50.25888324873097 Y149.50507614213197 F1500
G3 X41.92893401015229 Y143.5736040609137 I39.99238578680203 J-64.96700507614213
G3 X33.2741116751269 Y135.06598984771574 I42.42639593908629 J-51.829949238578685
G3 X26.294416243654823 Y125.13705583756345 I51.08121827411168 J-43.32233502538071
G3 X20.804568527918782 Y113.38324873096447 I66.13197969543148 J-38.03553299492386
G3 X17.388324873096444 Y100.86802030456853 I71.61928934010152 J-26.281725888324875
G3 X16.289340101522843 Y88.78172588832487 I65.88071065989848 J-12.086294416243655
G3 X17.388324873096444 Y76.69289340101523 I66.97969543147208 J0
G3 X20.804568527918782 Y64.18020304568527 I75.03807106598985 J13.766497461928935
G3 X26.294416243654823 Y52.42639593908629 I71.61928934010152 J26.281725888324875
G3 X33.2741116751269 Y42.49746192893401 I58.06091370558376 J33.39340101522843
G3 X41.92893401015229 Y33.98984771573604 I51.08121827411168 J43.32233502538071
G3 X50.25888324873097 Y28.058375634517766 I48.32233502538071 J59.03553299492386
G1 Z-7.5 F800
G1 X50.25888324873097 Y149.50507614213197 F1500
G3 X41.92893401015229 Y143.5736040609137 I39.99238578680203 J-64.96700507614213
G3 X33.2741116751269 Y135.06598984771574 I42.42639593908629 J-51.829949238578685
G3 X26.294416243654823 Y125.13705583756345 I51.08121827411168 J-43.32233502538071
G3 X20.804568527918782 Y113.38324873096447 I66.13197969543148 J-38.03553299492386
G3 X17.388324873096444 Y100.86802030456853 I71.61928934010152 J-26.281725888324875
G3 X16.289340101522843 Y88.78172588832487 I65.88071065989848 J-12.086294416243655
G3 X17.388324873096444 Y76.69289340101523 I66.97969543147208 J0
G3 X20.804568527918782 Y64.18020304568527 I75.03807106598985 J13.766497461928935
G3 X26.294416243654823 Y52.42639593908629 I71.61928934010152 J26.281725888324875
G3 X33.2741116751269 Y42.49746192893401 I58.06091370558376 J33.39340101522843
G3 X41.92893401015229 Y33.98984771573604 I51.08121827411168 J43.32233502538071
G3 X50.25888324873097 Y28.058375634517766 I48.32233502538071 J59.03553299492386
G1 Z-8 F800
G1 X50.25888324873097 Y149.50507614213197 F1500
G3 X41.92893401015229 Y143.5736040609137 I39.99238578680203 J-64.96700507614213
G3 X33.2741116751269 Y135.06598984771574 I42.42639593908629 J-51.829949238578685
G3 X26.294416243654823 Y125.13705583756345 I51.08121827411168 J-43.32233502538071
G3 X20.804568527918782 Y113.38324873096447 I66.13197969543148 J-38.03553299492386
G3 X17.388324873096444 Y100.86802030456853 I71.61928934010152 J-26.281725888324875
G3 X16.289340101522843 Y88.78172588832487 I65.88071065989848 J-12.086294416243655
G3 X17.388324873096444 Y76.69289340101523 I66.97969543147208 J0
G3 X20.804568527918782 Y64.18020304568527 I75.03807106598985 J13.766497461928935
G3 X26.294416243654823 Y52.42639593908629 I71.61928934010152 J26.281725888324875
G3 X33.2741116751269 Y42.49746192893401 I58.06091370558376 J33.39340101522843
G3 X41.92893401015229 Y33.98984771573604 I51.08121827411168 J43.32233502538071
G3 X50.25888324873097 Y28.058375634517766 I48.32233502538071 J59.03553299492386

(profile outside)
G0 Z5
G0 X1.2593908629441624 Y88.78147208121827
G1 Z-1.5 F800
G3 X2.9213197969543145 Y71.20558375634518 I93.80964467005077 J0 F1500
G3 X7.604060913705584 Y55.54314720812183 I78.76142131979695 J15.02284263959391
G3 X15.365482233502538 Y41.15736040609137 I74.07868020304568 J30.685279187817258
G3 X26.619289340101524 Y27.555837563451778 I77.58629441624366 J52.73096446700507
G3 X40.22335025380711 Y16.30203045685279 I66.33248730964466 J66.33248730964466
G3 X54.609137055837564 Y8.538071065989847 I45.07106598984771 J66.31725888324874
G3 X70.26903553299492 Y3.8553299492385786 I30.685279187817258 J74.07868020304568
G3 X87.84771573604061 Y2.1928934010152283 I17.576142131979694 J92.1472081218274
G3 X105.4238578680203 Y3.8553299492385786 I0 J93.80964467005077
G3 X121.08375634517768 Y8.538071065989847 I-15.02284263959391 J78.76142131979695
G3 X135.46954314720813 Y16.30203045685279 I-30.685279187817258 J74.07868020304568
G3 X149.0736040609137 Y27.555837563451778 I-52.73096446700507 J77.58629441624366
G3 X160.32741116751268 Y41.15736040609137 I-66.33248730964466 J66.33248730964466
G3 X168.08883248730965 Y55.54314720812183 I-66.31725888324874 J45.07106598984771
G3 X172.7741116751269 Y71.20558375634518 I-74.07868020304568 J30.685279187817258
G3 X174.4340101522843 Y88.78172588832487 I-92.1472081218274 J17.576142131979694
G3 X172.7741116751269 Y106.35786802030458 I-93.80964467005077 J0
G3 X168.08883248730965 Y122.02030456852793 I-78.76142131979695 J-15.02284263959391
G3 X160.32741116751268 Y136.4035532994924 I-74.07868020304568 J-30.685279187817258
G3 X149.0736040609137 Y150.00761421319797 I-77.58629441624366 J-52.73096446700507
G3 X135.46954314720813 Y161.26142131979694 I-66.33248730964466 J-66.33248730964466
G3 X121.08375634517768 Y169.0253807106599 I-45.07106598984771 J-66.31725888324874
G3 X105.4238578680203 Y173.70812182741116 I-30.685279187817258 J-74.07868020304568
G3 X87.84771573604061 Y175.36802030456852 I-17.576142131979694 J-92.1472081218274
G3 X70.26903553299492 Y173.70812182741116 I0 J-93.80964467005077
G3 X54.609137055837564 Y169.0253807106599 I15.02284263959391 J-78.76142131979695
G3 X40.22335025380711 Y161.26142131979694 I30.685279187817258 J-74.07868020304568
G3 X26.619289340101524 Y150.00761421319797 I52.73096446700507 J-77.58629441624366
G3 X15.365482233502538 Y136.4035532994924 I66.33248730964466 J-66.33248730964466
G3 X7.604060913705584 Y122.02030456852793 I66.31725888324874 J-45.07106598984771
G3 X2.9213197969543145 Y106.35786802030458 I74.07868020304568 J-30.685279187817258
G3 X1.2588832487309645 Y88.78172588832487 I92.1472081218274 J-17.576142131979694
G1 Z-3 F800
G3 X2.9213197969543145 Y71.20558375634518 I93.80964467005077 J0 F1500
G3 X7.604060913705584 Y55.54314720812183 I78.76142131979695 J15.02284263959391
G3 X15.365482233502538 Y41.15736040609137 I74.07868020304568 J30.685279187817258
G3 X26.619289340101524 Y27.555837563451778 I77.58629441624366 J52.73096446700507
G3 X40.22335025380711 Y16.30203045685279 I66.33248730964466 J66.33248730964466
G3 X54.609137055837564 Y8.538071065989847 I45.07106598984771 J66.31725888324874
G3 X70.26903553299492 Y3.8553299492385786 I30.685279187817258 J74.07868020304568
G3 X87.84771573604061 Y2.1928934010152283 I17.576142131979694 J92.1472081218274
G3 X105.4238578680203 Y3.8553299492385786 I0 J93.80964467005077
G3 X121.08375634517768 Y8.538071065989847 I-15.02284263959391 J78.76142131979695
G3 X135.46954314720813 Y16.30203045685279 I-30.685279187817258 J74.07868020304568
G3 X149.0736040609137 Y27.555837563451778 I-52.73096446700507 J77.58629441624366
G3 X160.32741116751268 Y41.15736040609137 I-66.33248730964466 J66.33248730964466
G3 X168.08883248730965 Y55.54314720812183 I-66.31725888324874 J45.07106598984771
G3 X172.7741116751269 Y71.20558375634518 I-74.07868020304568 J30.685279187817258
G3 X174.4340101522843 Y88.78172588832487 I-92.1472081218274 J17.576142131979694
G3 X172.7741116751269 Y106.35786802030458 I-93.80964467005077 J0
G3 X168.08883248730965 Y122.02030456852793 I-78.76142131979695 J-15.02284263959391
G3 X160.32741116751268 Y136.4035532994924 I-74.07868020304568 J-30.685279187817258
G3 X149.0736040609137 Y150.00761421319797 I-77.58629441624366 J-52.73096446700507
G3 X135.46954314720813 Y161.26142131979694 I-66.33248730964466 J-66.33248730964466
G3 X121.08375634517768 Y169.0253807106599 I-45.07106598984771 J-66.31725888324874
G3 X105.4238578680203 Y173.70812182741116 I-30.685279187817258 J-74.07868020304568
G3 X87.84771573604061 Y175.36802030456852 I-17.576142131979694 J-92.1472081218274
G3 X70.26903553299492 Y173.70812182741116 I0 J-93.80964467005077
G3 X54.609137055837564 Y169.0253807106599 I15.02284263959391 J-78.76142131979695
G3 X40.22335025380711 Y161.26142131979694 I30.685279187817258 J-74.07868020304568
G3 X26.619289340101524 Y150.00761421319797 I52.73096446700507 J-77.58629441624366
G3 X15.365482233502538 Y136.4035532994924 I66.33248730964466 J-66.33248730964466
G3 X7.604060913705584 Y122.02030456852793 I66.31725888324874 J-45.07106598984771
G3 X2.9213197969543145 Y106.35786802030458 I74.07868020304568 J-30.685279187817258
G3 X1.2588832487309645 Y88.78172588832487 I92.1472081218274 J-17.576142131979694
G1 Z-4.5 F800
G3 X2.9213197969543145 Y71.20558375634518 I93.80964467005077 J0 F1500
G3 X7.604060913705584 Y55.54314720812183 I78.76142131979695 J15.02284263959391
G3 X15.365482233502538 Y41.15736040609137 I74.07868020304568 J30.685279187817258
G3 X26.619289340101524 Y27.555837563451778 I77.58629441624366 J52.73096446700507
G3 X40.22335025380711 Y16.30203045685279 I66.33248730964466 J66.33248730964466
G3 X54.609137055837564 Y8.538071065989847 I45.07106598984771 J66.31725888324874
G3 X70.26903553299492 Y3.8553299492385786 I30.685279187817258 J74.07868020304568
G3 X87.84771573604061 Y2.1928934010152283 I17.576142131979694 J92.1472081218274
G3 X105.4238578680203 Y3.8553299492385786 I0 J93.80964467005077
G3 X121.08375634517768 Y8.538071065989847 I-15.02284263959391 J78.76142131979695
G3 X135.46954314720813 Y16.30203045685279 I-30.685279187817258 J74.07868020304568
G3 X149.0736040609137 Y27.555837563451778 I-52.73096446700507 J77.58629441624366
G3 X160.32741116751268 Y41.15736040609137 I-66.33248730964466 J66.33248730964466
G3 X168.08883248730965 Y55.54314720812183 I-66.31725888324874 J45.07106598984771
G3 X172.7741116751269 Y71.20558375634518 I-74.07868020304568 J30.685279187817258
G3 X174.4340101522843 Y88.78172588832487 I-92.1472081218274 J17.576142131979694
G3 X172.7741116751269 Y106.35786802030458 I-93.80964467005077 J0
G3 X168.08883248730965 Y122.02030456852793 I-78.76142131979695 J-15.02284263959391
G3 X160.32741116751268 Y136.4035532994924 I-74.07868020304568 J-30.685279187817258
G3 X149.0736040609137 Y150.00761421319797 I-77.58629441624366 J-52.73096446700507
G3 X135.46954314720813 Y161.26142131979694 I-66.33248730964466 J-66.33248730964466
G3 X121.08375634517768 Y169.0253807106599 I-45.07106598984771 J-66.31725888324874
G3 X105.4238578680203 Y173.70812182741116 I-30.685279187817258 J-74.07868020304568
G3 X87.84771573604061 Y175.36802030456852 I-17.576142131979694 J-92.1472081218274
G3 X70.26903553299492 Y173.70812182741116 I0 J-93.80964467005077
G3 X54.609137055837564 Y169.0253807106599 I15.02284263959391 J-78.76142131979695
G3 X40.22335025380711 Y161.26142131979694 I30.685279187817258 J-74.07868020304568
G3 X26.619289340101524 Y150.00761421319797 I52.73096446700507 J-77.58629441624366
G3 X15.365482233502538 Y136.4035532994924 I66.33248730964466 J-66.33248730964466
G3 X7.604060913705584 Y122.02030456852793 I66.31725888324874 J-45.07106598984771
G3 X2.9213197969543145 Y106.35786802030458 I74.07868020304568 J-30.685279187817258
G3 X1.2588832487309645 Y88.78172588832487 I92.1472081218274 J-17.576142131979694
G1 Z-6 F800
G3 X2.9213197969543145 Y71.20558375634518 I93.80964467005077 J0 F1500
G3 X7.604060913705584 Y55.54314720812183 I78.76142131979695 J15.02284263959391
G3 X15.365482233502538 Y41.15736040609137 I74.07868020304568 J30.685279187817258
G3 X26.619289340101524 Y27.555837563451778 I77.58629441624366 J52.73096446700507
G3 X40.22335025380711 Y16.30203045685279 I66.33248730964466 J66.33248730964466
G3 X54.609137055837564 Y8.538071065989847 I45.07106598984771 J66.31725888324874
G3 X70.26903553299492 Y3.8553299492385786 I30.685279187817258 J74.07868020304568
G3 X87.84771573604061 Y2.1928934010152283 I17.576142131979694 J92.1472081218274
G3 X105.4238578680203 Y3.8553299492385786 I0 J93.80964467005077
G3 X121.08375634517768 Y8.538071065989847 I-15.02284263959391 J78.76142131979695
G3 X135.46954314720813 Y16.30203045685279 I-30.685279187817258 J74.07868020304568
G3 X149.0736040609137 Y27.555837563451778 I-52.73096446700507 J77.58629441624366
G3 X160.32741116751268 Y41.15736040609137 I-66.33248730964466 J66.33248730964466
G3 X168.08883248730965 Y55.54314720812183 I-66.31725888324874 J45.07106598984771
G3 X172.7741116751269 Y71.20558375634518 I-74.07868020304568 J30.685279187817258
G3 X174.4340101522843 Y88.78172588832487 I-92.1472081218274 J17.576142131979694
G3 X172.7741116751269 Y106.35786802030458 I-93.80964467005077 J0
G3 X168.08883248730965 Y122.02030456852793 I-78.76142131979695 J-15.02284263959391
G3 X160.32741116751268 Y136.4035532994924 I-74.07868020304568 J-30.685279187817258
G3 X149.0736040609137 Y150.00761421319797 I-77.58629441624366 J-52.73096446700507
G3 X135.46954314720813 Y161.26142131979694 I-66.33248730964466 J-66.33248730964466
G3 X121.08375634517768 Y169.0253807106599 I-45.07106598984771 J-66.31725888324874
G3 X105.4238578680203 Y173.70812182741116 I-30.685279187817258 J-74.07868020304568
G3 X87.84771573604061 Y175.36802030456852 I-17.576142131979694 J-92.1472081218274
G3 X70.26903553299492 Y173.70812182741116 I0 J-93.80964467005077
G3 X54.609137055837564 Y169.0253807106599 I15.02284263959391 J-78.76142131979695
G3 X40.22335025380711 Y161.26142131979694 I30.685279187817258 J-74.07868020304568
G3 X26.619289340101524 Y150.00761421319797 I52.73096446700507 J-77.58629441624366
G3 X15.365482233502538 Y136.4035532994924 I66.33248730964466 J-66.33248730964466
G3 X7.604060913705584 Y122.02030456852793 I66.31725888324874 J-45.07106598984771
G3 X2.9213197969543145 Y106.35786802030458 I74.07868020304568 J-30.685279187817258
G3 X1.2588832487309645 Y88.78172588832487 I92.1472081218274 J-17.576142131979694
G1 Z-7.5 F800
G3 X2.9213197969543145 Y71.20558375634518 I93.80964467005077 J0 F1500
G3 X7.604060913705584 Y55.54314720812183 I78.76142131979695 J15.02284263959391
G3 X15.365482233502538 Y41.15736040609137 I74.07868020304568 J30.685279187817258
G3 X26.619289340101524 Y27.555837563451778 I77.58629441624366 J52.73096446700507
G3 X40.22335025380711 Y16.30203045685279 I66.33248730964466 J66.33248730964466
G3 X54.609137055837564 Y8.538071065989847 I45.07106598984771 J66.31725888324874
G3 X70.26903553299492 Y3.8553299492385786 I30.685279187817258 J74.07868020304568
G3 X87.84771573604061 Y2.1928934010152283 I17.576142131979694 J92.1472081218274
G3 X105.4238578680203 Y3.8553299492385786 I0 J93.80964467005077
G3 X121.08375634517768 Y8.538071065989847 I-15.02284263959391 J78.76142131979695
G3 X135.46954314720813 Y16.30203045685279 I-30.685279187817258 J74.07868020304568
G3 X149.0736040609137 Y27.555837563451778 I-52.73096446700507 J77.58629441624366
G3 X160.32741116751268 Y41.15736040609137 I-66.33248730964466 J66.33248730964466
G3 X168.08883248730965 Y55.54314720812183 I-66.31725888324874 J45.07106598984771
G3 X172.7741116751269 Y71.20558375634518 I-74.07868020304568 J30.685279187817258
G3 X174.4340101522843 Y88.78172588832487 I-92.1472081218274 J17.576142131979694
G3 X172.7741116751269 Y106.35786802030458 I-93.80964467005077 J0
G3 X168.08883248730965 Y122.02030456852793 I-78.76142131979695 J-15.02284263959391
G3 X160.32741116751268 Y136.4035532994924 I-74.07868020304568 J-30.685279187817258
G3 X149.0736040609137 Y150.00761421319797 I-77.58629441624366 J-52.73096446700507
G3 X135.46954314720813 Y161.26142131979694 I-66.33248730964466 J-66.33248730964466
G3 X121.08375634517768 Y169.0253807106599 I-45.07106598984771 J-66.31725888324874
G3 X105.4238578680203 Y173.70812182741116 I-30.685279187817258 J-74.07868020304568
G3 X87.84771573604061 Y175.36802030456852 I-17.576142131979694 J-92.1472081218274
G3 X70.26903553299492 Y173.70812182741116 I0 J-93.80964467005077
G3 X54.609137055837564 Y169.0253807106599 I15.02284263959391 J-78.76142131979695
G3 X40.22335025380711 Y161.26142131979694 I30.685279187817258 J-74.07868020304568
G3 X26.619289340101524 Y150.00761421319797 I52.73096446700507 J-77.58629441624366
G3 X15.365482233502538 Y136.4035532994924 I66.33248730964466 J-66.33248730964466
G3 X7.604060913705584 Y122.02030456852793 I66.31725888324874 J-45.07106598984771
G3 X2.9213197969543145 Y106.35786802030458 I74.07868020304568 J-30.685279187817258
G3 X1.2588832487309645 Y88.78172588832487 I92.1472081218274 J-17.576142131979694
G1 Z-8 F800
G3 X2.9213197969543145 Y71.20558375634518 I93.80964467005077 J0 F1500
G3 X7.604060913705584 Y55.54314720812183 I78.76142131979695 J15.02284263959391
G3 X15.365482233502538 Y41.15736040609137 I74.07868020304568 J30.685279187817258
G3 X26.619289340101524 Y27.555837563451778 I77.58629441624366 J52.73096446700507
G3 X40.22335025380711 Y16.30203045685279 I66.33248730964466 J66.33248730964466
G3 X54.609137055837564 Y8.538071065989847 I45.07106598984771 J66.31725888324874
G3 X70.26903553299492 Y3.8553299492385786 I30.685279187817258 J74.07868020304568
G3 X87.84771573604061 Y2.1928934010152283 I17.576142131979694 J92.1472081218274
G3 X105.4238578680203 Y3.8553299492385786 I0 J93.80964467005077
G3 X121.08375634517768 Y8.538071065989847 I-15.02284263959391 J78.76142131979695
G3 X135.46954314720813 Y16.30203045685279 I-30.685279187817258 J74.07868020304568
G3 X149.0736040609137 Y27.555837563451778 I-52.73096446700507 J77.58629441624366
G3 X160.32741116751268 Y41.15736040609137 I-66.33248730964466 J66.33248730964466
G3 X168.08883248730965 Y55.54314720812183 I-66.31725888324874 J45.07106598984771
G3 X172.7741116751269 Y71.20558375634518 I-74.07868020304568 J30.685279187817258
G3 X174.4340101522843 Y88.78172588832487 I-92.1472081218274 J17.576142131979694
G3 X172.7741116751269 Y106.35786802030458 I-93.80964467005077 J0
G3 X168.08883248730965 Y122.02030456852793 I-78.76142131979695 J-15.02284263959391
G3 X160.32741116751268 Y136.4035532994924 I-74.07868020304568 J-30.685279187817258
G3 X149.0736040609137 Y150.00761421319797 I-77.58629441624366 J-52.73096446700507
G3 X135.46954314720813 Y161.26142131979694 I-66.33248730964466 J-66.33248730964466
G3 X121.08375634517768 Y169.0253807106599 I-45.07106598984771 J-66.31725888324874
G3 X105.4238578680203 Y173.70812182741116 I-30.685279187817258 J-74.07868020304568
G3 X87.84771573604061 Y175.36802030456852 I-17.576142131979694 J-92.1472081218274
G3 X70.26903553299492 Y173.70812182741116 I0 J-93.80964467005077
G3 X54.609137055837564 Y169.0253807106599 I15.02284263959391 J-78.76142131979695
G3 X40.22335025380711 Y161.26142131979694 I30.685279187817258 J-74.07868020304568
G3 X26.619289340101524 Y150.00761421319797 I52.73096446700507 J-77.58629441624366
G3 X15.365482233502538 Y136.4035532994924 I66.33248730964466 J-66.33248730964466
G3 X7.604060913705584 Y122.02030456852793 I66.31725888324874 J-45.07106598984771
G3 X2.9213197969543145 Y106.35786802030458 I74.07868020304568 J-30.685279187817258
G3 X1.2588832487309645 Y88.78172588832487 I92.1472081218274 J-17.576142131979694
G0 Z5
M5
M30
